!! 00010] TT[TB
!! Eigene Aufnahme
!!!OTL: Xiang nian nin a, qinai de ren Well, I go for my native land!
!!!ARE: Neimeng
!! Ethnic Group: Menggu
!! MM, S. 331
!!!SCT: C0545
!!!YEM: Copyright 1995, estate of Helmut Schaffrath.
**kern
*ICvox
*Ivox
*M2/4
*k[]
*C:
{8g
4.g
=1
4g
4d
=2
4g
4e
=3
2g}
=4
{16g
16g
4.g
=5
4g
4d
=6
4g
4e
=7
2d}
=8
{4c
4c
=9
4c
4A
=10
4c
4d
=11
2e
=12
2d}
=13
{2d
=14
4c
=15
4A
=16
4c
4e
=17
2g}
==
!!!AGN: NN
!! Saenger: Chao Lun Batou, der das Buch nur zum Nachschlagen
!!    benutzte und ansonsten auswendig sang. Da er aus dem Osten der
!!    Neimeng kommt, kennt er nicht so viele Lieder des Westens.
!!    Alle Lieder wurden mit erkaelteter, halber Stimme in meinem
!!    Zimmer gesungen. FOTO VORHANDEN (DIAS)  31.3.87
!!    Wenig Verzierungen. VARIANTE BZW. ANDERES LIED!
!!!ONB: ESAC (Essen Associative Code) Database: CHINA
!!!AMT: simple duple
!!!AIN: vox
!!!EED: Helmut Schaffrath
!!!EEV: 1.0
*-
